usr/share/icons/biglinux-icons-material-dark/16/actions/kdenlive-show-video.svg

<svg xmlns="http://www.w3.org/2000/svg" viewBox="0 0 16 16">
  <defs id="defs3051">
    <style type="text/css" id="current-color-scheme">
      .ColorScheme-Text {
        color:#dedede;
      }
      </style>
  </defs>
    <path 
        style="fill:currentColor;fill-opacity:1;stroke:none" 
        d="M 2 2 L 2 14 L 14 14 L 14 2 L 2 2 z M 5 3 L 11 3 L 11 7 L 5 7 L 5 3 z M 3 4 L 4 4 L 4 5 L 3 5 L 3 4 z M 12 4 L 13 4 L 13 5 L 12 5 L 12 4 z M 3 7.5 L 4 7.5 L 4 8.5 L 3 8.5 L 3 7.5 z M 12 7.5 L 13 7.5 L 13 8.5 L 12 8.5 L 12 7.5 z M 5 9 L 11 9 L 11 13 L 5 13 L 5 9 z M 3 11 L 4 11 L 4 12 L 3 12 L 3 11 z M 12 11 L 13 11 L 13 12 L 12 12 L 12 11 z " 
        class="ColorScheme-Text"/>
</svg>

<svg xmlns="http://www.w3.org/2000/svg" viewBox="0 0 16 16">
<defs id="defs3051">
<style id="current-color-scheme" type="text/css">
.ColorScheme-Text{color:#dedede}
</style>
</defs>
<path d="M2 2v12h12V2zm3 1h6v4H5zM3 4h1v1H3zm9 0h1v1h-1zM3 7.5h1v1H3zm9 0h1v1h-1zM5 9h6v4H5zm-2 2h1v1H3zm9 0h1v1h-1z" class="ColorScheme-Text" style="fill:currentColor;fill-opacity:1;stroke:none"/>
</svg>
